X:1
T:Title
%%score ( 1 2 ) { 3 | 4 }
L:1/8
Q:1/4=100
M:9/8
K:G
V:1 treble nm="Grand Piano, Soprano"
V:2 treble 
V:3 bass nm="Choir Pad, Pomona, 99.99.99 D"
V:4 bass 
V:1
 [DB]>[CA][B,G] [DB]3 [DG]3 | [CA]>[CG][CE] [B,D]6 | [DG]>[DA][GB] [Gd]3 [GB]3 | %3
w: By~J.~P.~Denton,~1913 * * * *|||
 [Gd]>[Fc][GB] [FA]6 | [GB]>[DA][DG] [GB]3 [DG]3 | [EA]>[EG][CE] [B,D]6 | [DG]>[GB][Ge] [Gd]3 G3 | %7
w: ||||
 [GB]>G[FA] G6 | [Gd]>[G^c][Gd] [Ge]3 [G=c]3 | [Gc]>[Gd][Ge] d3 B3 | [GB]>[G_B][G=B] [Gd]3 [GB]3 | %11
w: ||||
 [Gd]>[Fc][GB] [FA]6 | [GB]>[DA][DG] [GB]3 [DG]3 | [EA]>[EG][CE] [B,D]6 | [DG]>[GB][Ge] [Gd]3 G3 | %15
w: ||||
 [GB]>G[FA] G6- | G3 z3 z3 |] %17
w: ||
V:2
 x9 | x9 | x9 | x9 | x9 | x9 | x9 | x9 | x9 | z3 G6 | x9 | x9 | x9 | x9 | x9 | x9 | x9 |] %17
V:3
 G,>G,G, G,3 G,3 | E,>E,G, G,6 | B,>[K:treble]CD B,3 D3 | D>DD D6 | D>CB, D3 B,3 | %5
 C>C[K:bass]G, G,6 | B,>DC B,3[K:treble] ^C3 | D>B,C B,6 | B,>_B,=B, C3 E3 | C>B,C B,3 D3 | %10
 D>^CD B,3 D3 | D>DD D6 | D>CB, D3 B,3 | C>C[K:bass]G, G,6 | B,>DC B,3[K:treble] ^C3 | D>B,C B,6- | %16
 B,3 z3 z3 |] %17
V:4
 G,,>G,,G,, G,,3 B,,3 | C,>C,C, G,,6 | G,>G,G, G,3 G,3 | B,>A,G, D,6 | G,>G,G, G,3 G,3 | %5
 C,>C,C, G,,6 | G,>G,G, G,3 E,3 | D,>D,D, G,,6 | G,>G,G, C,3 C,3 | E,>D,C, G,6 | G,>G,G, G,3 G,3 | %11
 B,>A,G, D,6 | G,>G,G, G,3 G,3 | C,>C,C, G,,6 | G,>G,G, G,3 E,3 | D,>D,D, G,,6- | G,,3 z3 z3 |] %17

